X: 4460
T: Bonnie Kate
R: reel
M: 4/4
K: Cmajor
Gc{/e} c/B/c AcGE|CEGE({/A} FED)E|CEGE FAd(c|B)d GB c/B/c{/B} Ac|
GE{/G} E/^D/E CE{/G} E/D/E|cE{/G} E/^D/E (A/F/E D)E|CEGE FAdc|Bd GB c/B/c{/B} Ac|
GE{/G} E/^D/E CE{/G} E/D/E|cE E/^D/E A/F/E DE|CEGE FAdc|BdGB c/B/c{/B} Ac|
GE{/G} E/^D/E CE{/G} E/D/E|G,E{/G} E/^D/E A/F/E DE|CEGE FAdc|BdGB c/B/c ec||
gc{/e} c/B/c gcac|gc{/e} c/B/c Bcde|f/a/f eg fagf|(efe)d{/e} cdec|
gc{/e} c/B/c gcac|gc{/e} c/B/c Bcde|fedc Bagf|efed{/e} cdec|
gc{/e} c/B/c Gcac|gc{/e} c/B/c Bcde|f/a/f eg fagf|efed{/e} cdec|
gc{/e} c/B/c ac{/e} c/B/c|gc{/e} c/B/c Bcde|fedc Bagf|efe(d c{/e}c{/B}cA)||
GE{/G} E/^D/E CE{/G} E/D/E|cE{/G} E/^D/E A/F/E DE|CEGE FAdc|BdGB c/B/c Ac|
GE{/G} E/^D/E CE{/G} E/D/E|G,CEC DG,B,D|CEGE FAdc|BdGB c/B/c{/B} Ac|
GE{/G} E/^D/E cE{/G} E/D/E|G,CEC DG,B,D|CEGE FAdc|BdGB c/B/c{/B} Ac|
GE{/G} E/^D/E CE{/G} E/D/E|cE{/G} E/^D/E A/F/E DE|CEGE FAdc|BdGB c/B/c{/B} ec||
gc{/e} c/B/c Gcac|gc{/e} c/B/c Bcde|f/a/f eg fagf|efed cdec|
gc{/e} c/B/c Gcac|gc{/e} c/B/c Bcde|fedc Bagf|efed{/e} cdec|
gc{/e} c/B/c Gcac|gc{/e} c/B/c Bcde|f/a/f eg fagf|efed{/e} cdec|
gc{/e} c/B/c gcac|gc{/e} c/B/c Bcde|{/a} fedc Bagf|efe(d{/e} cc{/B}c) A|
GE{/G} E/^D/E CE E/D/E|cE{/G} E/^D/E A/F/E DE|CEGE FAdc|BdGB c/B/c{/B} Ac|
GE{/G} E/^D/E CE{/G} E/D/E|G,CEC DG,B,D|CEGE FAdc|BdGB{/e} c/B/c Ac|
c/B/A B/A/G AGFE|F/E/D E/D/^C DG,B,D|CEGE FAdc|BdGB{/e} c/B/c Ac|
GE{/G} E/^D/E CE{/G} E/D/E|G,CEC DG,B,D|CEGE FAdc|BdGB c/e/c ec||
gc{/e} c/B/c gcac|gc{/e} c/B/c Bcde|f/a/f eg fagf|efed{/e} cdec|
gc{/e} c/B/c Gcac|gc{/e} c/B/c Bcde|{/a} fedc Bagf|efed{/e} cdec|
gc{/e} c/B/c ac{/e} c/B/c|gc{/e} c/B/c Bcde|f/a/f eg fagf|efed{/e} cdec|
gc{/e} c/B/c gcac|gc{/e} c/B/c Bcde|{/a} fedc Bagf|efed c3||

